X:1
T:Jesus, Savior, Friend of Sinners
T:Charles Hutchinson Gabriel
T:Jesus, Savior, Friend of Sinners
T:Public Domain
T:Public Domain
C:Charles Hutchinson Gabriel
Z:Public Domain
%%score ( 1 2 ) ( 3 4 )
L:1/8
M:4/4
K:Ab
V:1 treble 
V:2 treble 
V:3 bass 
V:4 bass 
V:1
 [Ec]3 [Ec] [DB]2 (CE) | [FA]3 [FB] [FA]2 [DF]2 | [CE]2 [DF]2 [CA]2 [Ec]2 | [Ec]2 [EB]2 [EB]4 | %4
w: 1.~Je- sus, Sav- ior, *|of sin- ners, Waits|to wel- come, waits|to bless; And|
w: 2.~Je- sus, Sav- ior, *|of sin- ners, Comes|to cheer my heart|to- day; He|
w: 3.~Je- sus, Sav- ior, *|of sin- ners, Comes|to com- fort, comes|to cheer; And|
w: 4.~Je- sus, Sav- ior, *|of sin- ners, He|has been a Friend|to me; And|
 [Ec]3 [Ec] [DB]2 (CE) | [FA]3 [FB] [FA]2 [DF]2 | [CE]2 [CA]2 [Ec]3 [Fd] | [Ec]2 [DB]2 [CA]4 || %8
w: I must not keep *|wait- ing, For I|long for hap- pi-|ness. * *|
w: has shoul- dered ev- *|bur- den, And will|help me all the|way. He my|
w: I’ll not go mourn- *|long- er, For He|saves me now and|here. * *|
w: to think with Him *|glo- ry I shall|reign e- ter- nal-|ly! * *|
"^Refrain" [Ae]3 [Ae] ([Ec][DB]) [CA]2 | [Ec]3 [CA] [DF]2 [CE]2 | [Ae]3 [Ae] (cB) [EA]2 | %11
w: |||
w: soul with blood * hath|ran- somed, And will|keep me to * the|
w: |||
w: |||
 [Ed]2 [Ec]2 [EB]4 | [Ec]3 [Ec] [DB]2 (CE) | [FA]3 [FB] [FA]2 [DF]2 | [CE]2 [CA]2 [Ec]3 [Fd] | %15
w: ||||
w: He’s en- ti-|tled to my best *|For He is the|sin- ner’s Friend. *|
w: ||||
w: ||||
 [Ec]2 [DB]2 [CA]4 |] %16
w: |
w: |
w: |
w: |
V:2
 x6 A2 | x8 | x8 | x8 | x6 A2 | x8 | x8 | x8 || x8 | x8 | x4 E2 x2 | x8 | x6 A2 | x8 | x8 | x8 |] %16
w: Friend||||Him||||||||||||
w: Friend||||ery||||||end;||love,||||
w: Friend||||ing||||||||||||
w: Friend||||in||||||||||||
V:3
 [A,,A,]3 [A,,A,] [A,,A,]2 (A,,C,) | [D,D]3 [D,D] [D,D]2 [D,A,]2 | %2
 [A,,A,]2 [A,,A,]2 [A,,A,]2 [A,,A,]2 | [E,A,]2 [E,G,]2 [E,G,]4 | %4
 [A,,A,]3 [A,,A,] [A,,A,]2 (A,,C,) | [D,D]3 [D,D] [D,D]2 [D,A,]2 | [A,,A,]2 [A,,A,]2 A,3 [D,A,] | %7
 [E,A,]2 [E,G,]2 [A,,A,]4 || [A,C]3 [A,C] A,2 A,2 | [A,,A,]3 [A,,A,] [A,,A,]2 [A,,A,]2 | %10
 [A,C]3 [A,C] (A,D) [A,C]2 | [G,B,]2 A,2 [E,G,]4 | [A,,A,]3 [A,,A,] [A,,A,]2 (A,,C,) | %13
 [D,D]3 [D,D] [D,D]2 [D,A,]2 | [A,,A,]2 [A,,A,]2 A,3 [D,A,] | [E,A,]2 [E,G,]2 [A,,A,]4 |] %16
V:4
 x6 A,2 | x8 | x8 | x8 | x6 A,2 | x8 | x4 A,3 x | x8 || x4 A,2 A,2 | x8 | x4 A,2 x2 | x2 A,2 x4 | %12
 x6 A,2 | x8 | x4 A,3 x | x8 |] %16

